src/topics/icons/aurelia.svg

<svg height="249" preserveAspectRatio="xMidYMid" viewBox="0 0 256 249" width="256" xmlns="http://www.w3.org/2000/svg" xmlns:xlink="http://www.w3.org/1999/xlink"><linearGradient id="a"><stop offset="0" stop-color="#c06fbb"/><stop offset="1" stop-color="#6e4d9b"/></linearGradient><linearGradient id="b" x1="-388.147851%" x2="237.683809%" xlink:href="#a" y1="-113.677693%" y2="370.654866%"/><linearGradient id="c"><stop offset="0" stop-color="#6e4d9b"/><stop offset=".14" stop-color="#77327a"/><stop offset=".29" stop-color="#b31777"/><stop offset=".84" stop-color="#cd0f7e"/><stop offset="1" stop-color="#ed2c89"/></linearGradient><linearGradient id="d" x1="72.945485%" x2="-97.05179%" xlink:href="#c" y1="79.514687%" y2="-119.502084%"/><linearGradient id="e" x1="-232.211989%" x2="250.775991%" xlink:href="#a" y1="-693.599872%" y2="101.70976%"/><linearGradient id="f" x1="-821.186214%" x2="101.985142%" xlink:href="#a" y1="-466.930382%" y2="287.264085%"/><linearGradient id="g" x1="-140.094614%" x2="418.49908%" xlink:href="#a" y1="-230.925718%" y2="261.976742%"/><linearGradient id="h" x1="191.083716%" x2="20.357702%" xlink:href="#c" y1="225.066658%" y2="24.594771%"/><linearGradient id="i" x1="-388.094004%" x2="237.674802%" xlink:href="#a" y1="-138.727507%" y2="445.404664%"/><linearGradient id="j" x1="11.503492%" x2="89.819264%" y1="89.652599%" y2="11.577398%"><stop offset="0" stop-color="#6e4d9b"/><stop offset=".14" stop-color="#77327a"/><stop offset=".53" stop-color="#b31777"/><stop offset=".79" stop-color="#cd0f7e"/><stop offset="1" stop-color="#ed2c89"/></linearGradient><path d="m167.876207 46.3687469-23.680492 15.8047001-24.395155-36.5589319 23.680491-15.80470006z" fill="url(#b)"/><path d="m187.128711 156.199437 40.460612 60.630557-48.198299 32.164713-40.460612-60.631523-7.058757-10.576062 48.199265-32.164714z" fill="url(#d)"/><path d="m126.421861 196.710267 8.908192 13.348767-36.6864127 24.482074-15.9669481-23.925795 8.0148613-5.348392 28.6725165-19.133683z" fill="url(#e)"/><path d="m207.172143 127.536576 10.290197-6.86657 15.965983 23.925795-23.683389 15.8047-8.908192-13.348766 13.393192-8.938131zm-6.335401 19.515159-7.05779-10.577029 13.393191-8.93813 7.057791 10.577028z" fill="url(#f)"/><path d="m41.1093181 130.966968-8.0138956 5.348391-24.39708719-36.5589316 36.68641249-24.4820743 17.100753 25.6265029-28.6715511 19.133682 28.6715511-19.133682 7.2963342 10.933395z" fill="url(#g)"/><path d="m130.488688 71.3224496-48.1992646 32.1647134-7.2953684-10.9333952-40.0820327-60.0626887 48.1992648-32.1647134 40.0820329 60.062689z" fill="url(#h)"/><path d="m157.589904 53.2375841-13.393191 8.9371643-7.296334-10.9324293-17.100753-25.6265026 23.683388-15.80470003 24.397088 36.55893183z" fill="url(#i)"/><path d="m97.7503053 215.84395-7.0587566-10.577029 28.6725173-19.133683 7.057791 10.577029z" fill="#714896"/><path d="m200.836744 147.051736-7.057791-10.577028 13.393192-8.938131 7.057791 10.577029z" fill="#6f4795"/><path d="m41.1093172 130.966965-7.2953684-10.932429 28.6715511-19.133683 7.2963342 10.933395z" fill="#88519f"/><path d="m144.196718 62.1747499-7.296334-10.9324293 13.394158-8.9381301 7.295368 10.933395z" fill="#85509e"/><path d="m187.128711 156.199434-48.198299 32.163748-7.058757-10.576063 48.199265-32.164714z" fill="#8d166a"/><path d="m123.19332 60.3890532 7.295368 10.933395-48.1992647 32.1647138-7.2953685-10.9333954z" fill="#a70d6f"/><path d="m27.4386316 51.6530056 9.0974901 13.6327921-13.632792 9.0974901-9.0974902-13.632792z" fill="#9e61ad"/><path d="m76.5679915 215.084186 9.0974902 13.632792-13.6327921 9.09749-9.0974901-13.632792z" fill="#8053a3"/><path d="m40.7042434 228.813811-39.91255914-60.295817 213.29688574-142.6624354 41.852541 59.3337222z" fill="url(#j)"/></svg>

<?xml version="1.0" encoding="UTF-8" standalone="no"?>
<svg width="256px" height="249px" viewBox="0 0 256 249" version="1.1" xmlns="http://www.w3.org/2000/svg" xmlns:xlink="http://www.w3.org/1999/xlink" preserveAspectRatio="xMidYMid">
    <defs>
        <linearGradient x1="-388.147851%" y1="-113.677693%" x2="237.683809%" y2="370.654866%" id="linearGradient-1">
            <stop stop-color="#C06FBB" offset="0%"></stop>
            <stop stop-color="#6E4D9B" offset="100%"></stop>
        </linearGradient>
        <linearGradient x1="72.9454854%" y1="79.5146865%" x2="-97.0517904%" y2="-119.502084%" id="linearGradient-2">
            <stop stop-color="#6E4D9B" offset="0%"></stop>
            <stop stop-color="#77327A" offset="14%"></stop>
            <stop stop-color="#B31777" offset="29%"></stop>
            <stop stop-color="#CD0F7E" offset="84%"></stop>
            <stop stop-color="#ED2C89" offset="100%"></stop>
        </linearGradient>
        <linearGradient x1="-232.211989%" y1="-693.599872%" x2="250.775991%" y2="101.70976%" id="linearGradient-3">
            <stop stop-color="#C06FBB" offset="0%"></stop>
            <stop stop-color="#6E4D9B" offset="100%"></stop>
        </linearGradient>
        <linearGradient x1="-821.186214%" y1="-466.930382%" x2="101.985142%" y2="287.264085%" id="linearGradient-4">
            <stop stop-color="#C06FBB" offset="0%"></stop>
            <stop stop-color="#6E4D9B" offset="100%"></stop>
        </linearGradient>
        <linearGradient x1="-140.094614%" y1="-230.925718%" x2="418.49908%" y2="261.976742%" id="linearGradient-5">
            <stop stop-color="#C06FBB" offset="0%"></stop>
            <stop stop-color="#6E4D9B" offset="100%"></stop>
        </linearGradient>
        <linearGradient x1="191.083716%" y1="225.066658%" x2="20.3577022%" y2="24.5947708%" id="linearGradient-6">
            <stop stop-color="#6E4D9B" offset="0%"></stop>
            <stop stop-color="#77327A" offset="14%"></stop>
            <stop stop-color="#B31777" offset="29%"></stop>
            <stop stop-color="#CD0F7E" offset="84%"></stop>
            <stop stop-color="#ED2C89" offset="100%"></stop>
        </linearGradient>
        <linearGradient x1="-388.094004%" y1="-138.727507%" x2="237.674802%" y2="445.404664%" id="linearGradient-7">
            <stop stop-color="#C06FBB" offset="0%"></stop>
            <stop stop-color="#6E4D9B" offset="100%"></stop>
        </linearGradient>
        <linearGradient x1="11.503492%" y1="89.6525993%" x2="89.8192643%" y2="11.5773982%" id="linearGradient-8">
            <stop stop-color="#6E4D9B" offset="0%"></stop>
            <stop stop-color="#77327A" offset="14%"></stop>
            <stop stop-color="#B31777" offset="53%"></stop>
            <stop stop-color="#CD0F7E" offset="79%"></stop>
            <stop stop-color="#ED2C89" offset="100%"></stop>
        </linearGradient>
    </defs>
	<g>
		<path d="M167.876207,46.3687469 L144.195715,62.173447 L119.80056,25.6145151 L143.481051,9.80981504 L167.876207,46.3687469 L167.876207,46.3687469 L167.876207,46.3687469 Z" fill="url(#linearGradient-1)"></path>
		<path d="M187.128711,156.199437 L227.589323,216.829994 L179.391024,248.994707 L138.930412,188.363184 L131.871655,177.787122 L180.07092,145.622408 L187.128711,156.199437 L187.128711,156.199437 L187.128711,156.199437 Z" fill="url(#linearGradient-2)"></path>
		<path d="M126.421861,196.710267 L135.330053,210.059034 L98.6436403,234.541108 L82.6766922,210.615313 L90.6915535,205.266921 L119.36407,186.133238 L126.421861,196.710267 L126.421861,196.710267 L126.421861,196.710267 Z" fill="url(#linearGradient-3)"></path>
		<path d="M207.172143,127.536576 L217.46234,120.670006 L233.428323,144.595801 L209.744934,160.400501 L200.836742,147.051735 L214.229934,138.113604 L207.172143,127.536576 L207.172143,127.536576 L207.172143,127.536576 L207.172143,127.536576 Z M200.836742,147.051735 L193.778952,136.474706 L207.172143,127.536576 L214.229934,138.113604 L200.836742,147.051735 L200.836742,147.051735 L200.836742,147.051735 L200.836742,147.051735 Z" fill="url(#linearGradient-4)"></path>
		<path d="M41.1093181,130.966968 L33.0954225,136.315359 L8.69833531,99.7564274 L45.3847478,75.2743531 L62.4855008,100.900856 L33.8139497,120.034538 L62.4855008,100.900856 L69.781835,111.834251 L41.1093181,130.966968 L41.1093181,130.966968 L41.1093181,130.966968 Z" fill="url(#linearGradient-5)"></path>
		<path d="M130.488688,71.3224496 L82.2894234,103.487163 L74.994055,92.5537678 L34.9120223,32.4910791 L83.1112871,0.3263657 L123.19332,60.3890547 L130.488688,71.3224496 Z" fill="url(#linearGradient-6)"></path>
		<path d="M157.589904,53.2375841 L144.196713,62.1747484 L136.900379,51.2423191 L119.799626,25.6158165 L143.483014,9.81111647 L167.880102,46.3700483 L157.589904,53.2375841 L157.589904,53.2375841 L157.589904,53.2375841 Z" fill="url(#linearGradient-7)"></path>
		<path d="M97.7503053,215.84395 L90.6915487,205.266921 L119.364066,186.133238 L126.421857,196.710267 L97.7503053,215.84395 L97.7503053,215.84395 L97.7503053,215.84395 Z" fill="#714896"></path>
		<path d="M200.836744,147.051736 L193.778953,136.474708 L207.172145,127.536577 L214.229936,138.113606 L200.836744,147.051736 L200.836744,147.051736 L200.836744,147.051736 Z" fill="#6F4795"></path>
		<path d="M41.1093172,130.966965 L33.8139488,120.034536 L62.4854999,100.900853 L69.7818341,111.834248 L41.1093172,130.966965 L41.1093172,130.966965 L41.1093172,130.966965 Z" fill="#88519F"></path>
		<path d="M144.196718,62.1747499 L136.900384,51.2423206 L150.294542,42.3041905 L157.58991,53.2375855 L144.196718,62.1747499 L144.196718,62.1747499 L144.196718,62.1747499 Z" fill="#85509E"></path>
		<path d="M187.128711,156.199434 L138.930412,188.363182 L131.871655,177.787119 L180.07092,145.622405 L187.128711,156.199434 L187.128711,156.199434 L187.128711,156.199434 Z" fill="#8D166A"></path>
		<path d="M123.19332,60.3890532 L130.488688,71.3224482 L82.2894233,103.487162 L74.9940548,92.5537666 L123.19332,60.3890532 L123.19332,60.3890532 L123.19332,60.3890532 Z" fill="#A70D6F"></path>
		<path d="M27.4386316,51.6530056 L36.5361217,65.2857977 L22.9033297,74.3832878 L13.8058395,60.7504958 L27.4386316,51.6530056 L27.4386316,51.6530056 Z" fill="#9E61AD"></path>
		<path d="M76.5679915,215.084186 L85.6654817,228.716978 L72.0326896,237.814468 L62.9351995,224.181676 L76.5679915,215.084186 L76.5679915,215.084186 Z" fill="#8053A3"></path>
		<path d="M40.7042434,228.813811 L0.791684264,168.517994 L214.08857,25.8555586 L255.941111,85.1892808 L40.7042434,228.813811 L40.7042434,228.813811 L40.7042434,228.813811 L40.7042434,228.813811 Z" fill="url(#linearGradient-8)"></path>
	</g>
</svg>
